X: 1603
T: Joe Cashmere's Varsovianna
B: australian traditional tunes wiki
M:3/4
L:1/8
R: Varsovienne
Q: 1/4=100
K:G
V:1 
B2|:"G"D2(3DEF G>A|B4B2|d2 g>d B>G|"D"A4A2|"Am"E2(3EFG A<B|
"C"c4c2|1"G"e<d d>B G>B|d4B2:|2"D"e<d d>c B>A|"G"G4g2||
|:"C"f>ec2e2|"G"d>BG2B2|"D7"c>AF2e2|"G"d4g2|"C"f>ec2e2|
"G"d>BG2B2|1"D7"d>BF2A2|"G"G4g2:|2"D7"(3cBA F>D F<D|"G"G4z2||
% abcbook-tune_id 6342d53a87cba6537db7ac59


% abcbook-boost 0
% abcbook-tablature 
% abcbook-transpose 
% abcbook-lastupdated 1665324373410
% abcbook-soundfonts 
% abcbook-repeats 1
% NFF Book 2014

